packages/foundations/assets/icons/functional/images/notification/bell_24.svg

<svg width="24" height="24" viewBox="0 0 24 24" fill="none" xmlns="http://www.w3.org/2000/svg">
<g clip-path="url(#clip0_187_124)">
<path fill-rule="evenodd" clip-rule="evenodd" d="M12 2C12.5401 2 12.9863 2.44603 12.9863 3.00933V4.08923L13.0099 4.08903C16.086 4.58214 17.9881 7.23476 17.9881 11.1784L18.0116 13.9953C18.0116 15.8263 18.5283 16.507 19.538 17.1643C19.9137 17.3991 20.0781 17.8685 19.9607 18.2911C19.8198 18.7136 19.4441 18.9953 18.9979 18.9953H15.2641C15.1232 20.662 13.7143 22 12.0235 22C10.3092 22 8.9003 20.662 8.7828 18.9953H5.0021C4.5559 18.9953 4.1802 18.7136 4.0393 18.2911C3.9219 17.8685 4.0863 17.3991 4.462 17.1643C5.4952 16.4835 5.9884 15.8498 5.9884 13.9953V11.1784C5.9884 7.21127 7.9375 4.53516 10.9902 4.06574V3.00933C10.9902 2.44603 11.4364 2 12 2ZM13.2446 18.9953H10.8024C10.9198 19.5587 11.4129 19.9812 12.0235 19.9812C12.6106 19.9812 13.1037 19.5587 13.2446 18.9953ZM11.9765 5.99062C9.4873 5.99062 7.9844 7.939 7.9844 11.1784V13.9953C8.0314 15.0282 7.82 16.061 7.3504 17H16.6496C16.18 16.061 15.9451 15.0282 15.9921 13.9953V11.1784C15.9921 7.939 14.4892 5.99062 11.9765 5.99062Z" fill="#1A1C1F"/>
</g>
<defs>
<clipPath id="clip0_187_124">
<rect width="24" height="24" fill="white"/>
</clipPath>
</defs>
</svg>

<svg xmlns="http://www.w3.org/2000/svg" width="24" height="24" fill="none"><g clip-path="url(#a)"><path fill="#1A1C1F" fill-rule="evenodd" d="M12 2c.54 0 .986.446.986 1.01v1.08l.024-.001c3.076.493 4.978 3.146 4.978 7.09l.024 2.816c0 1.831.516 2.512 1.526 3.17.376.234.54.704.423 1.126-.141.423-.517.704-.963.704h-3.734c-.14 1.667-1.55 3.005-3.24 3.005a3.253 3.253 0 0 1-3.241-3.005h-3.78c-.447 0-.823-.281-.964-.704a1.01 1.01 0 0 1 .423-1.127c1.033-.68 1.526-1.314 1.526-3.169v-2.817c0-3.967 1.95-6.643 5.002-7.112V3.009C10.99 2.446 11.436 2 12 2m1.245 16.995h-2.443c.118.564.61.986 1.222.986.587 0 1.08-.422 1.22-.986M11.977 5.991c-2.49 0-3.993 1.948-3.993 5.187v2.817A6.1 6.1 0 0 1 7.35 17h9.3a6.1 6.1 0 0 1-.658-3.005v-2.817c0-3.239-1.503-5.187-4.016-5.187" clip-rule="evenodd"/></g><defs><clipPath id="a"><path fill="#fff" d="M0 0h24v24H0z"/></clipPath></defs></svg>
